dist/img/app-store.svg

<svg width="28" height="34" viewBox="0 0 28 34" fill="none" xmlns="http://www.w3.org/2000/svg">
<path d="M9.30209 33.9999C4.24187 33.9707 0.0561523 23.6411 0.0561523 18.3804C0.0561523 9.78721 6.50254 7.90592 8.98693 7.90592C10.1065 7.90592 11.3021 8.3456 12.3565 8.73467C13.0939 9.00607 13.8565 9.28624 14.2806 9.28624C14.5345 9.28624 15.1328 9.04791 15.661 8.8388C16.7874 8.39036 18.1891 7.83301 19.8214 7.83301C19.8243 7.83301 19.8282 7.83301 19.8311 7.83301C21.0499 7.83301 24.7454 8.10049 26.9672 11.437L27.4876 12.2191L26.7386 12.7843C25.6686 13.5916 23.7162 15.0644 23.7162 17.9817C23.7162 21.4369 25.9273 22.7656 26.9895 23.4047C27.4584 23.6868 27.9438 23.9777 27.9438 24.6139C27.9438 25.0292 24.6287 33.9483 19.8145 33.9483C18.6366 33.9483 17.8039 33.5942 17.0694 33.282C16.3263 32.9658 15.6852 32.6935 14.6259 32.6935C14.0889 32.6935 13.4099 32.9474 12.6911 33.2169C11.7087 33.5835 10.5968 33.9999 9.33516 33.9999H9.30209Z" fill="white"/>
<path d="M20.3314 0C20.4568 4.52067 17.2238 7.65691 13.9946 7.46021C13.4624 3.85256 17.2234 0 20.3314 0Z" fill="white"/>
</svg>

<svg width="28" height="34" fill="none" xmlns="http://www.w3.org/2000/svg"><path d="M9.302 34C4.242 33.97.056 23.64.056 18.38c0-8.593 6.447-10.474 8.93-10.474 1.12 0 2.316.44 3.37.829.738.271 1.5.551 1.925.551.253 0 .852-.238 1.38-.447 1.126-.449 2.528-1.006 4.16-1.006h.01c1.219 0 4.914.267 7.136 3.604l.52.782-.748.565c-1.07.808-3.023 2.28-3.023 5.198 0 3.455 2.211 4.784 3.273 5.423.47.282.955.573.955 1.209 0 .415-3.315 9.334-8.13 9.334-1.177 0-2.01-.354-2.745-.666-.743-.316-1.384-.588-2.443-.588-.537 0-1.216.253-1.935.523-.982.367-2.094.783-3.356.783h-.033zM20.331 0c.126 4.52-3.107 7.657-6.336 7.46C13.462 3.853 17.223 0 20.33 0z" fill="#fff"/></svg>
